X:14
T:Jaimie's Return. THO5.014
M:2/4
L:1/8
B:Thompson's Complete Collection of 200 Favourite Dances Vol.5
F:https://www.libraryofdance.org/manuals/1780c-Thompson-Compleat-5.pdf
Z:vmp. Peter Dunk 2024
Q:1/4=110
K:F
F/G/A/B/ cA|fAcA|Gg/a/ bg|fedc|
F/G/A/B/ cA|fAcA|BGFE|F2- F2:|
|:afaf|bagf|ecde|f/e/f/g/ ff|
afaf|bagf|ecde|f2f2:|
|:fgaf|dc c2|cdcB|BA A2|
fgaf|defd|cB AG|F2F2:|
W:
W:The 1st Gent change places with the 2nd Lady ./.
W:The 1st Lady with the 2nd Gent ./: The same back
W:again into your own places :/. :/: Lead down the
W:middle, up again and cast off :/. Right and Left :/:

